X:1
T: The Belle of the Kitchen
C:
R:Jig
Q:180
K:G
M:6/8
L:1/16
|:G2B2G2 E2D2E2|G2B2d2 e4d2|g2B2B2 B4A2|G2E2E2 E4D2|
G2B2G2 E2D2E2|G2B2d2 e4d2|g2B2B2 B4A2|B2G2G2 G6:|
|:G2B2d2 B2G2d2|B2G2d2 e2d2e2|G2B2d2 e2f2g2|d2c2B2 A2G2A2|
G2B2d2 e2f2g2|d2c2B2 A2G2A2|B2G2D2 D4d2|B2G2G2 G6:|

